!!!COM:	Bach, Johann Sebastian
!!!OMV:	Nun lieget alles unter dir
!!!OTL:	Nun lieget alles unter dir
**kern	**fb	**kern	**kern	**kern	**kern
*part5	*part5	*part4	*part3	*part2	*part1
*staff5	*	*staff4	*staff3	*staff2	*staff1
*I"Continuo	*	*I"Voice	*I"Voice	*I"Voice	*I"Voice
*I'Cont.	*	*I'V	*I'V	*I'V	*I'V
*clefF4	*	*clefF4	*clefGv2	*clefG2	*clefG2
*Trd0c0	*	*	*	*	*
*k[f#c#]	*	*k[f#c#]	*k[f#c#]	*k[f#c#]	*k[f#c#]
*M3/4	*	*M3/4	*M3/4	*M3/4	*M3/4
=	=	=	=	=	=
8DL	.	8DL	4F#	4A	4d
8C#J	.	8C#J	.	.	.
4BB	.	4BB	8F#L	4d	4d
.	.	.	8DJ	.	.
4AA	.	4AA	4A	8dL	4e
.	.	.	.	8c#J	.
=3	=3	=3	=3	=3	=3
4.D	5	4.D	8AL	2d	4.f#
.	.	.	8F#J	.	.
.	6	.	4B	.	.
8E	7 #	8E	.	.	8g#X
4F#	.	4F#	4A	8c#L	4a
.	.	.	.	8AJ	.
=4	=4	=4	=4	=4	=4
8DL	6 5	8DL	4B	4f#	2a
8BBJ	.	8BBJ	.	.	.
2E	5 4	2E	8BL	2e	.
.	.	.	8c#J	.	.
.	.	.	4d	.	4g#X
=5	=5	=5	=5	=5	=5
2AA;	#	2AA;	2c#;	2e;	2a;
4D	.	4D	4A	8dL	4f#
.	.	.	.	8c#J	.
=6	=6	=6	=6	=6	=6
4E	7	4E	4G	8BL	2g
.	6	.	.	8c#J	.
4.F#	9 6	4.F#	8AL	[2d	.
.	.	.	8GJ	.	.
.	8	.	[4A	.	4f#
8G	.	8G	.	.	.
=7	=7	=7	=7	=7	=7
8AL	4	8AL	4A]	8d]	2e
8GJ	4	8GJ	.	16c#LL	.
.	3	.	.	16BJJ	.
4F#	7 5	4F#	8AL	4c#	.
.	.	.	8GJ	.	.
8BL	.	8BL	4F#	[4d	4d
8AJ	.	8AJ	.	.	.
=8	=8	=8	=8	=8	=8
!!linebreak:original
8GL	6 5	8GL	4B	4d]	2.e
8EJ	.	8EJ	.	.	.
4A	3	4A	4.A	8c#L	.
.	2	.	.	8BJ	.
4AA	3	4AA	.	4c#	.
.	.	.	8G	.	.
=9	=9	=9	=9	=9	=9
2.D;	.	2.D;	2.F#;	2.A;	2.d;
=10:|!	=10:|!	=10:|!	=10:|!	=10:|!	=10:|!
4AA	.	4AA	8AL	8c#L	4e
.	.	.	8G#XJ	8BJ	.
8AL	.	8AL	4A	4.c#	4e
8GJ	.	8GJ	.	.	.
4F#	7	4F#	4A	.	4f#
.	#6\	.	.	8d#X	.
=11	=11	=11	=11	=11	=11
4.E	.	4.E	8BL	4e	2g
.	.	.	8AJ	.	.
.	.	.	2G	4B	.
8DnL	.	8DnL	.	.	.
8Cn	5	8Cn	.	[4e	4g
8BBJ	.	8BBJ	.	.	.
=12	=12	=12	=12	=12	=12
8AAL	6 5 n	8AAL	4cn	4e]	4.f#
8FF#J	.	8FF#J	.	.	.
4BB	#	4BB	4.B	8d#XL	.
.	2	.	.	8c#J	8e
4BB	#	4BB	.	4d#	4f#
.	.	.	8A	.	.
=13	=13	=13	=13	=13	=13
2.E;	.	2.E;	2.G;	2.B;	2.e;
=14	=14	=14	=14	=14	=14
8BBL	#	8BBL	4B	4d#X	4f#
8C#J	.	8C#J	.	.	.
4D#X	6	4D#X	8F#L	4B	4f#
.	.	.	8GJ	.	.
4BB	#	4BB	8AL	4d#	4f#
.	.	.	8BJ	.	.
=15	=15	=15	=15	=15	=15
!!pagebreak:original
4.E	.	4.E	8GL	4e	4.g
.	.	.	8F#J	.	.
.	.	.	4E	4B	.
8F#L	.	8F#L	.	.	8a
8G	6	8G	8eL	4B	4b
8F#J	6 4	8F#J	8dnJ	.	.
=16	=16	=16	=16	=16	=16
8EL	6 5	8EL	4.c#	8gL	2b
8DJ	.	8DJ	.	8f#J	.
4C#	7	4C#	.	8eL	.
.	.	.	8B	8dJ	.
4F#	7 #	4F#	4c#	4e	4a#X
=17	=17	=17	=17	=17	=17
2BB;	.	2BB;	2B;	2d;	2b;
4F#	#	4F#	4A#X	4f#	4cc#
=18	=18	=18	=18	=18	=18
4.B	.	4.B	4.B	8f#L	4dd
.	.	.	.	8eJ	.
.	.	.	.	2d	2f#
8AnL	.	8AnL	8F#	.	.
8G	7 5	8G	8BL	.	.
8F#J	.	8F#J	8AJ	.	.
=19	=19	=19	=19	=19	=19
8EL	6	8EL	8GL	8c#L	2g
8DJ	.	8DJ	8F#J	8dJ	.
4C#	6 5	4C#	8E	4e	.
.	.	.	4A	.	.
4D	.	4D	.	[4d	4f#
.	.	.	8G#X	.	.
=20	=20	=20	=20	=20	=20
4A	.	4A	4A	8dL]	4e
.	.	.	.	8BJ	.
4AA;	.	4AA;	4A;	4c#;	4e;
4F#	.	4F#	4A	4d	4a
=21	=21	=21	=21	=21	=21
4.G	.	4.G	8GL	4d	4.b
.	.	.	8AJ	.	.
.	.	.	8BL	8gL	.
8A	6	8A	8c#J	8f#J	8a
8BL	6 5	8BL	8dL	8eL	4g
8C#J	6 5	8C#J	8AJ	8dJ	.
=22	=22	=22	=22	=22	=22
!!linebreak:original
8DL	.	8DL	8AL	4d	8f#L
8GGJ	6 5	8GGJ	8BJ	.	8eJ
2AA	4	2AA	4A	8dL	4.e
.	.	.	.	8BJ	.
.	3	.	4G	4c#	.
.	.	.	.	.	8d
=23	=23	=23	=23	=23	=23
2.D;	.	2.D;	2.F#;	2.A;	2.d;
=||	=||	=||	=||	=||	=||
*-	*-	*-	*-	*-	*-
!!!system-decoration: s1,s2,s3,s4,s5
